#define seraph_width 150
#define seraph_height 95
static unsigned char seraph_bits[] = {
0x00,0x00,0x00,0x00,0x00,0x00,0x00,0x00,0x00,0x00,0x00,0x00,0x00,0x00,0x00,0x00,0x00,0x00,0x00,0x00,0x00,0x00,0x00,0x00,0x00,0x00,0x00,0x00,0x00,0x00,0x00,0x00,0x00,0x00,0x00,0x00,0x00,0x00,0x00,0x00,0x00,0x00,0x00,0x00,0x00,0x00,0x00,0x00,0x00,0x00,0x00,0x00,0x00,0x00,0x00,0x00,0x00,0x00,0x00,0x00,0x00,0x00,0x00,0x00,0x00,0x00,0x00,0x00,0x00,0x00,0x00,0x00,0x00,0x00,0x00,0x00,0x00,0x00,0x00,0x00,0x00,0x00,0x00,0x10,0x00,0x00,0x00,0x02,0x00,0x00,0x00,0x00,0x00,0x00,0x00,0x00,0x00,0x00,0x00,0x00,0x00,0x00,0x60,0x00,0x00,0x00,0x01,0x00,0x00,0x00,0x00,0x00,0x00,0x00,0x00,0x00,0x00,0x00,0x00,0x00,0x00,0x80,0x00,0x00,0xc0,0x00,0x00,0x00,0x00,0x00,0x00,0x00,0x00,0x00,0x00,0x00,0x00,0x00,0x00,0x00,0x00,0x03,0x00,0x30,0x00,0x00,0x00,0x00,0x00,0x00,0x00,0x00,0x00,0x00,0x00,0x00,0x00,0x00,0x00,0x40,0x0c,0x00,0x8c,0x00,0x00,0x00,0x00,0x00,0x00,0x00,0x00,0x00,0x00,0x00,0x00,0x00,0x00,0x00,0x80,0x30,0x00,0x43,0x00,0x00,0x00,0x00,0x00,0x00,0x00,0x00,0x00,0x00,0x00,0x00,0x00,0x00,0x00,0x00,0xe2,0xe1,0x18,0x00,0x00,0x00,0x00,0x00,0x00,0x00,0x00,0x00,0x00,0x00,0x00,0x00,0x00,0x00,0x00,0x0c,0x10,0x04,0x00,0x00,0x00,0x00,0x00,0x00,0x00,0x00,0x00,0x00,0x00,0x00,0x00,0x00,0x00,0x00,0x10,0x06,0x03,0x00,0x00,0x00,0x00,0x00,0x00,0x00,0x00,0x00,0x00,0x00,0x00,0x00,0x00,0x00,0x00,0x82,0xe1,0x08,0x00,0x00,0x00,0x00,0x00,0x00,0x00,0x00,0x00,0x00,0x00,0x00,0x00,0x00,0x00,0x00,0x70,0x38,0x04,0x00,0x00,0x00,0x00,0x00,0x00,0x00,0x00,0x00,0x00,0x00,0x00,0x00,0x00,0x00,0x00,0x1c,0x04,0x01,0x00,0x00,0x00,0x00,0x00,0x00,0x00,0x00,0x00,0x00,0x00,0x00,0x00,0x00,0x00,0x00,0x83,0xc3,0x38,0x00,0x00,0x00,0x00,0x00,0x00,0x00,0x00,0x00,0x00,0x00,0x00,0x00,0x00,0x00,0xc0,0x60,0x18,0x60,0x00,0x00,0x00,0x00,0x00,0x00,0x00,0x00,0x00,0x00,0x00,0x00,0x00,0x00,0x00,0x10,0x18,0x06,0x83,0x01,0x00,0x00,0x00,0x00,0x00,0x00,0x00,0x00,0x00,0x00,0x00,0x00,0x00,0x00,0x8c,0xc3,0x21,0x0c,0x06,0x00,0x00,0x00,0x00,0x00,0x00,0x00,0x00,0x00,0x00,0x00,0x00,0x00,0x00,0x63,0x30,0x80,0x70,0x04,0x00,0x00,0x00,0x00,0x00,0x00,0x00,0x00,0x00,0x00,0x00,0x00,0x00,0x00,0x38,0x0c,0x0f,0xc3,0x01,0x00,0x00,0x00,0x00,0x00,0x00,0x00,0x00,0x00,0x00,0x00,0x00,0x00,0x00,0x0c,0x83,0x0f,0x8c,0x13,0x00,0x00,0x00,0x00,0x00,0x00,0x00,0x00,0x00,0x00,0x00,0x00,0x00,0x80,0xc0,0x00,0x67,0x70,0x60,0x00,0x00,0x00,0x00,0x00,0x00,0x00,0x00,0x00,0x00,0x00,0x00,0x00,0x20,0x60,0x9c,0x80,0xe1,0xc0,0x00,0x00,0x00,0x00,0x00,0x00,0x00,0x00,0x00,0x00,0x00,0x00,0x00,0x10,0x06,0x07,0x00,0x8e,0x0c,0x01,0x00,0x00,0x00,0x00,0x00,0x00,0x00,0x00,0x00,0x00,0x00,0x00,0x08,0x01,0xc3,0x3f,0x10,0x10,0x02,0x00,0x00,0x00,0x00,0x00,0x00,0x00,0x00,0x00,0x00,0x00,0x00,0x84,0x30,0xf1,0xff,0xa1,0x20,0x1c,0x00,0x00,0x00,0x00,0x00,0x00,0x00,0x00,0x00,0x00,0x00,0x00,0x47,0x18,0xf8,0xff,0x43,0x43,0x3c,0x00,0x00,0x00,0x00,0x00,0x00,0x00,0x00,0x00,0x00,0x00,0x80,0x27,0x04,0xfe,0xff,0x0f,0x84,0x3f,0x00,0x00,0x00,0x00,0x00,0x00,0x00,0x00,0x00,0x00,0x00,0x80,0x3f,0x42,0xfe,0xff,0x0f,0x88,0x3f,0x00,0x00,0x00,0x00,0x00,0x00,0x00,0x00,0x00,0x00,0x00,0x80,0xff,0x21,0xff,0xc0,0x9f,0x90,0x3f,0x00,0x00,0x00,0x00,0x00,0x00,0x00,0x00,0x00,0x00,0x00,0x80,0xff,0x91,0x1f,0x00,0x3f,0xe1,0x3f,0x00,0x00,0x00,0x00,0x00,0x00,0x00,0x00,0x00,0x00,0x00,0x80,0xff,0x9b,0x0f,0x00,0x3e,0xc3,0x3f,0x00,0x00,0x00,0x00,0x00,0x00,0x00,0x00,0x00,0x00,0x00,0x80,0xff,0xdf,0x07,0x00,0x7c,0xff,0x1f,0x00,0x00,0x00,0x00,0x00,0x00,0x00,0x00,0x00,0x00,0x00,0x80,0xfe,0xcf,0x03,0x00,0x7c,0xfe,0x1f,0x00,0x00,0x00,0x00,0x00,0x00,0x00,0x00,0x00,0x00,0x00,0x00,0xfc,0xcf,0x03,0x00,0x7c,0xfe,0x0f,0x00,0x00,0x00,0x00,0x00,0x00,0x00,0x00,0x00,0x00,0x00,0x00,0xf8,0xcf,0x03,0x04,0x78,0xfe,0x23,0x00,0x00,0x00,0x00,0x00,0x00,0x00,0x00,0x00,0x00,0x00,0x00,0x80,0xcf,0x03,0x3f,0xf8,0x3e,0x10,0x00,0x00,0x00,0x00,0x00,0x00,0x00,0x00,0x00,0x00,0x00,0x00,0x00,0xc0,0x83,0x0f,0xf8,0x02,0x04,0x00,0x00,0x00,0x00,0x00,0x00,0x00,0x00,0x00,0x00,0x00,0x00,0x20,0xc7,0x03,0x04,0xf8,0x00,0x60,0x01,0x00,0x00,0x00,0x00,0x00,0x00,0x00,0x00,0x00,0x00,0x10,0x00,0xc0,0x03,0x04,0x78,0x00,0x00,0x0f,0x00,0x00,0x00,0x00,0x00,0x00,0x00,0x00,0x00,0x00,0xfe,0x00,0xc6,0x03,0x7a,0x78,0xf0,0xe0,0x3f,0x00,0x00,0x00,0x00,0x00,0x00,0x00,0x00,0x00,0xc0,0xff,0xc3,0xc1,0xc3,0x7b,0x7c,0x70,0xf8,0x7f,0x00,0x00,0x00,0x00,0x00,0x00,0x00,0x00,0x00,0x20,0xff,0x07,0x00,0xc0,0x39,0x00,0x00,0xf8,0x8f,0x01,0x00,0x00,0x00,0x00,0x00,0x00,0x00,0x00,0x00,0xc1,0x0f,0x00,0x80,0x39,0x00,0x00,0xfc,0x1e,0x03,0x00,0x00,0x00,0x00,0x00,0x00,0x00,0x00,0xcc,0x80,0x3f,0x06,0x81,0x31,0x99,0x87,0xbe,0x60,0x06,0x00,0x00,0x00,0x00,0x00,0x00,0x00,0x00,0x26,0x08,0xfc,0x0f,0x00,0x1b,0x80,0x9f,0x0f,0x82,0x08,0x00,0x00,0x00,0x00,0x00,0x00,0x00,0x00,0x07,0x04,0xe9,0x0f,0x1e,0x06,0x00,0xfe,0x10,0x04,0x1a,0x00,0x00,0x00,0x00,0x00,0x00,0x00,0xc0,0x49,0xc3,0x00,0x06,0xbf,0xe0,0x0f,0x8c,0x60,0x40,0x30,0x00,0x00,0x00,0x00,0x00,0x00,0x00,0x60,0x48,0x28,0x08,0xc0,0x8f,0x44,0x3f,0x10,0x82,0xc6,0xe7,0x00,0x00,0x00,0x00,0x00,0x00,0x00,0x30,0xc6,0x00,0x01,0xe0,0x8b,0x41,0x7d,0x00,0x10,0xfe,0x8c,0x01,0x00,0x00,0x00,0x00,0x00,0x00,0x1c,0x61,0x8e,0x11,0xf0,0x29,0x0b,0xf9,0x00,0xf1,0xcf,0x19,0x03,0x00,0x00,0x00,0x00,0x00,0x00,0xc6,0x18,0xc7,0x0c,0x70,0x40,0x62,0xf0,0x21,0xe6,0x1c,0x33,0x06,0x00,0x00,0x00,0x00,0x00,0x00,0x63,0x8c,0x73,0x44,0x38,0x8c,0x20,0xe4,0x43,0x8c,0x31,0x42,0x0c,0x00,0x00,0x00,0x00,0x00,0x80,0x31,0xc6,0x38,0x33,0x18,0x8c,0x11,0xa5,0x83,0x18,0xe3,0x8c,0x38,0x00,0x00,0x00,0x00,0x00,0xc0,0x88,0x71,0x8c,0x10,0x08,0x10,0x81,0x21,0x01,0x33,0x86,0x10,0x63,0x00,0x00,0x00,0x00,0x00,0x30,0xc4,0x00,0x00,0x00,0x08,0x33,0x80,0x30,0x01,0x40,0x08,0x21,0xc6,0x00,0x00,0x00,0x00,0x00,0x18,0x23,0x00,0x00,0x00,0x80,0x66,0xce,0x16,0x0d,0x00,0x00,0xc0,0x8c,0x03,0x00,0x00,0x00,0x00,0x8c,0x10,0x00,0x00,0x00,0xc0,0xcc,0x20,0x86,0x0c,0x00,0x00,0x00,0x31,0x07,0x00,0x00,0x00,0x00,0x46,0x04,0x00,0x00,0x00,0x80,0x98,0x31,0x9b,0x04,0x00,0x00,0x00,0x62,0x0c,0x00,0x00,0x00,0x80,0x33,0x02,0x00,0x00,0x00,0x38,0x31,0x80,0x39,0x06,0x00,0x00,0x00,0xcc,0x18,0x00,0x00,0x00,0xc0,0x18,0x00,0x00,0x00,0x00,0x48,0x62,0xcc,0x28,0x02,0x00,0x00,0x00,0x00,0x61,0x00,0x00,0x00,0x70,0x04,0x00,0x00,0x00,0x00,0x08,0xc0,0x24,0xcc,0x03,0x00,0x00,0x00,0x00,0xc4,0x00,0x00,0x00,0x1c,0x03,0x00,0x00,0x00,0x00,0x90,0x80,0x0c,0xc6,0x01,0x00,0x00,0x00,0x00,0x98,0x03,0x00,0x00,0xc7,0x00,0x00,0x00,0x00,0x00,0x20,0x00,0x0c,0xd3,0x00,0x00,0x00,0x00,0x00,0x00,0x06,0x00,0x80,0x21,0x00,0x00,0x00,0x00,0x00,0x40,0x02,0x1f,0x49,0x00,0x00,0x00,0x00,0x00,0x80,0x38,0x00,0x00,0x00,0x00,0x00,0x00,0x00,0x00,0xc0,0x44,0xc4,0x64,0x00,0x00,0x00,0x00,0x00,0x00,0xe2,0x00,0x00,0x00,0x00,0x00,0x00,0x00,0x00,0x80,0x81,0x20,0x02,0x00,0x00,0x00,0x00,0x00,0x00,0x00,0x00,0x00,0x00,0x00,0x00,0x00,0x00,0x00,0x00,0x13,0x11,0x01,0x00,0x00,0x00,0x00,0x00,0x00,0x00,0x00,0x00,0x00,0x00,0x00,0x00,0x00,0x00,0x00,0x66,0xcc,0x08,0x00,0x00,0x00,0x00,0x00,0x00,0x00,0x00,0x00,0x00,0x00,0x00,0x00,0x00,0x00,0x00,0x0c,0x22,0x00,0x00,0x00,0x00,0x00,0x00,0x00,0x00,0x00,0x00,0x00,0x00,0x00,0x00,0x00,0x00,0x00,0x18,0x11,0x00,0x00,0x00,0x00,0x00,0x00,0x00,0x00,0x00,0x00,0x00,0x00,0x00,0x00,0x00,0x00,0x00,0xc0,0x84,0x00,0x00,0x00,0x00,0x00,0x00,0x00,0x00,0x00,0x00,0x00,0x00,0x00,0x00,0x00,0x00,0x00,0x20,0x22,0x00,0x00,0x00,0x00,0x00,0x00,0x00,0x00,0x00,0x00,0x00,0x00,0x00,0x00,0x00,0x00,0x00,0x10,0x10,0x01,0x00,0x00,0x00,0x00,0x00,0x00,0x00,0x00,0x00,0x00,0x00,0x00,0x00,0x00,0x00,0x00,0x44,0x04,0x04,0x00,0x00,0x00,0x00,0x00,0x00,0x00,0x00,0x00,0x00,0x00,0x00,0x00,0x00,0x00,0x00,0x00,0x80,0x01,0x00,0x00,0x00,0x00,0x00,0x00,0x00,0x00,0x00,0x00,0x00,0x00,0x00,0x00,0x00,0x00,0x80,0x10,0x02,0x00,0x00,0x00,0x00,0x00,0x00,0x00,0x00,0x00,0x00,0x00,0x00,0x00,0x00,0x00,0x40,0x40,0x40,0x0c,0x00,0x00,0x00,0x00,0x00,0x00,0x00,0x00,0x00,0x00,0x00,0x00,0x00,0x00,0x00,0x00,0x10,0x00,0x01,0x00,0x00,0x00,0x00,0x00,0x00,0x00,0x00,0x00,0x00,0x00,0x00,0x00,0x00,0x00,0x00,0x08,0x00,0x04,0x00,0x00,0x00,0x00,0x00,0x00,0x00,0x00,0x00,0x00,0x00,0x00,0x00,0x00,0x00,0x00,0x02,0x00,0x08,0x00,0x00,0x00,0x00,0x00,0x00,0x00,0x00,0x00,0x00,0x00,0x00,0x00,0x00,0x00,0x00,0x01,0x00,0x20,0x00,0x00,0x00,0x00,0x00,0x00,0x00,0x00,0x00,0x00,0x00,0x00,0x00,0x00,0x00,0x00,0x00,0x00,0x00,0x00,0x00,0x00,0x00,0x00,0x00,0x00,0x00,0x00,0x00,0x00,0x00,0x00,0x00,0x00,0x20,0x00,0x00,0x00,0x01,0x00,0x00,0x00,0x00,0x00,0x00,0x00,0x00,0x00,0x00,0x00,0x00,0x00,0x00,0x00,0x00,0x00,0x00,0x00,0x00,0x00,0x00,0x00,0x00,0x00,0x00,0x00,0x00,0x00,0x00,0x00,0x00,0x00,0x08,0x00,0x00,0x00,0x00,0x00,0x00,0x00,0x00,0x00,0x00,0x00,0x00,0x00,0x00,0x00,0x00,0x00,0x00,0x00,0x00,0x00,0x00,0x00,0x00,0x00,0x00,0x00,0x00,0x00,0x00,0x00,0x00,0x00,0x00,0x00,0x00,0x00,0x00,0x00,0x00,0x00,0x00,0x00,0x00,0x00,0x00,0x00,0x00,0x00,0x00,0x00,0x00,0x00,0x00,0x00,0x00,0x00,0x00,0x00,0x00,0x00,0x00,0x00,0x00,0x00,0x00,0x00,0x00,0x00,0x00,0x00,0x00,0x00,0x00,0x00,0x00,0x00,0x00,0x00,0x00,0x00,0x00,0x00,0x00,0x00,0x00,0x00,0x00,0x00,0x00,0x00,0x00,0x00,0x00,0x00,0x00,0x00,0x00,0x00,0x00,0x00,0x00,0x00,0x00,0x00,0x00,0x00,0x00,0x00,0x00,0x00,0x00,0x00,0x00,0x00,0x00,0x00,0x00,0x00,0x00,0x00,0x00,0x00,0x00,0x00,0x00,0x00,0x00,0x00,0x00,0x00,0x00,0x00,0x00,0x00,0x00,0x00,0x00,0x00,0x00,0x00,0x00,0x00,0x00};
